X:86
T:The Wedding o' Blyth
T:Blue's Gaen Oot o' the Fashion
Z:Jack Campin, http://www.campin.me.uk/
S:Northumbrian Minstrelsy
M:9/8
L:1/8
K:G
D|GAB c2A Bcd |e2c  dBG F2 \
D|GAB c2A cd=f|e2c  eBG G2:|
d|gag fgf ege |dge  dBG A2 \
d|gag fgf ege |d<ge dBG G2
d|gag fgf ege |dge  dBG A2 \
d|GAB c2A Bcd |e2c  dBG G2:|

